X: 483
T:Kesh Jig, The
M:6/8
O:Ireland
R:Jig
K:D
|: "D"D2D DEF | "A"E2E EFA | "G"BAA dAA | BAF "A"AFE | \
"D"D2D DEF | "A"E2E EFA | "D"BAA dAF | "A"EFE "D"D3 ::\
"D"F2F AFA | "G"B2B "D"AFD | F2F AFD | "C"E2(E E)z2 |\
"D"F2F AFA | "G"B2B "D"AFA | "G"d2d "A"ede | "D"fdd d3 :|
